images/astronaut.svg

<svg width="70" height="70" viewBox="0 0 70 70" fill="none" xmlns="http://www.w3.org/2000/svg">
<path d="M69.9434 9.89643C69.8058 9.47519 69.4418 9.1673 69.002 9.10304L64.823 8.49518L62.9528 4.70815C62.5608 3.91011 61.2529 3.91011 60.8609 4.70815L58.9907 8.49518L54.8116 9.10318C54.3718 9.1673 54.0078 9.47424 53.8689 9.89657C53.7325 10.3189 53.8455 10.7832 54.1641 11.0925L57.1893 14.0407L56.4754 18.2035C56.4007 18.641 56.5804 19.0831 56.9386 19.3445C57.3014 19.6083 57.775 19.6408 58.1682 19.4331L61.9063 17.4672L65.6444 19.4331C65.8147 19.5229 66.0026 19.5672 66.1881 19.5672C66.4296 19.5672 66.6712 19.4926 66.8742 19.3444C67.2335 19.0831 67.4131 18.6408 67.3374 18.2033L66.6235 14.0406L69.6487 11.0923C69.9656 10.782 70.08 10.3188 69.9434 9.89643ZM64.5558 12.7992C64.2817 13.0663 64.1556 13.4536 64.221 13.8317L64.6387 16.2689L62.4501 15.1185C62.2797 15.0287 62.0931 14.9844 61.9063 14.9844C61.7197 14.9844 61.5342 15.0287 61.3626 15.1185L59.1738 16.2689L59.5915 13.8317C59.6568 13.4536 59.5308 13.0675 59.2567 12.7992L57.4845 11.0725L59.9322 10.7166C60.3126 10.6618 60.6404 10.4227 60.8108 10.0784L61.9051 7.86175L62.9994 10.0784C63.1697 10.4225 63.4976 10.6618 63.878 10.7166L66.3257 11.0725L64.5558 12.7992Z" fill="#2196F3"/>
<path d="M57.1669 44.8923H54.8335V47.2257H57.1669V44.8923Z" fill="#2196F3"/>
<path d="M57.1669 49.5591H54.8335V51.8925H57.1669V49.5591Z" fill="#2196F3"/>
<path d="M59.5004 47.2256H57.167V49.559H59.5004V47.2256Z" fill="#2196F3"/>
<path d="M54.8339 47.2256H52.5005V49.559H54.8339V47.2256Z" fill="#2196F3"/>
<path d="M49.0004 57.7258H46.667V60.0592H49.0004V57.7258Z" fill="#2196F3"/>
<path d="M49.0004 62.3926H46.667V64.726H49.0004V62.3926Z" fill="#2196F3"/>
<path d="M51.3334 60.0593H49V62.3927H51.3334V60.0593Z" fill="#2196F3"/>
<path d="M46.6669 60.0593H44.3335V62.3927H46.6669V60.0593Z" fill="#2196F3"/>
<path d="M34.9999 53.0593H32.6665V55.3927H34.9999V53.0593Z" fill="#2196F3"/>
<path d="M34.9999 57.7258H32.6665V60.0592H34.9999V57.7258Z" fill="#2196F3"/>
<path d="M37.3334 55.3926H35V57.726H37.3334V55.3926Z" fill="#2196F3"/>
<path d="M32.6664 55.3926H30.333V57.726H32.6664V55.3926Z" fill="#2196F3"/>
<path d="M12.8329 13.3918H10.4995V15.7253H12.8329V13.3918Z" fill="#2196F3"/>
<path d="M12.8329 18.0586H10.4995V20.392H12.8329V18.0586Z" fill="#2196F3"/>
<path d="M15.1664 15.7253H12.833V18.0588H15.1664V15.7253Z" fill="#2196F3"/>
<path d="M10.4994 15.7253H8.16602V18.0588H10.4994V15.7253Z" fill="#2196F3"/>
<path d="M54.0635 30.9737C53.4347 30.1255 52.5119 29.5796 51.4642 29.4325C50.4118 29.2832 49.3734 29.5596 48.5334 30.2025L45.7952 32.3013L45.794 32.3025L41.6428 35.4024L38.6724 34.2194C43.9691 31.8429 47.6711 26.545 47.6711 20.3942C47.6711 12.0313 40.8401 5.22729 32.4436 5.22729C24.047 5.22729 17.2161 12.0313 17.2161 20.3942C17.2161 23.4253 18.1226 26.2439 19.6662 28.6157L13.6204 28.5632C13.6168 28.5632 13.6134 28.5632 13.6099 28.5632C13.5911 28.5632 13.5761 28.5725 13.5586 28.5738C13.4431 28.5784 13.3298 28.6018 13.2191 28.6414C13.1911 28.652 13.162 28.6578 13.1352 28.6705C13.1212 28.6764 13.1071 28.6775 13.0932 28.6845L6.02075 32.1763C6.01952 32.1763 6.01843 32.1763 6.01843 32.1774L1.8766 34.1692C1.83107 34.189 1.78445 34.2158 1.73892 34.2462C0.0880191 35.3451 -0.474314 37.5035 0.429958 39.2675C0.911763 40.2055 1.73195 40.8963 2.73999 41.2124C3.12856 41.3336 3.52518 41.3932 3.91949 41.3932C4.55305 41.3932 5.18074 41.2381 5.75578 40.9313L8.79154 39.3166L13.7441 36.7592L16.7122 36.7417L4.80844 48.5883C4.80735 48.5895 4.80612 48.5895 4.80489 48.5906L1.87647 51.5073C1.18466 52.1957 0.8043 53.1091 0.8043 54.0834C0.8043 55.0564 1.18466 55.9722 1.87647 56.6618C2.587 57.3688 3.52149 57.7235 4.45598 57.7235C5.3917 57.7235 6.32495 57.3688 7.03782 56.6618L9.91251 53.7987L13.7206 50.9555L15.6912 52.9179L11.8375 56.7551C11.8364 56.7563 11.8352 56.7563 11.834 56.7574L8.90556 59.6741C8.21375 60.3624 7.8334 61.2759 7.8334 62.2501C7.8334 63.2232 8.21375 64.1389 8.90556 64.8286C9.6161 65.5356 10.5518 65.8902 11.4863 65.8902C12.4208 65.8902 13.3565 65.5356 14.0681 64.8286L16.9977 61.9119L21.6842 57.2452C21.6854 57.244 21.6854 57.2429 21.6865 57.2417L23.8951 55.0541L23.8869 55.0459C23.9008 55.032 23.9207 55.0272 23.9347 55.0121L35.2353 42.6348L42.8281 43.7152C42.8829 43.7234 42.9377 43.7268 42.9925 43.7268C43.1338 43.7268 43.2702 43.693 43.402 43.6428C43.4406 43.6289 43.4743 43.6102 43.5106 43.5916C43.5526 43.5705 43.5968 43.5589 43.6366 43.5321L50.6659 38.8654C50.6916 38.8479 50.7055 38.8199 50.73 38.8013C50.758 38.7791 50.793 38.7698 50.8186 38.7452L53.5999 36.14C55.0471 34.784 55.2466 32.5627 54.0635 30.9737ZM4.66024 38.8721C4.28111 39.0751 3.85058 39.1159 3.43878 38.9853C3.03039 38.8582 2.69912 38.5793 2.50538 38.2025C2.15305 37.5164 2.35718 36.681 2.97433 36.2296L5.84793 34.8471L6.53974 36.8689L6.83027 37.7182L4.66024 38.8721ZM12.3102 34.874L8.92333 36.624L8.36456 34.9906L7.96328 33.8169L12.3967 31.6281L12.3102 34.874ZM45.3402 20.3918C45.3402 22.4008 44.8607 24.2956 44.03 25.9907L34.8832 21.8361C34.7875 20.582 34.1366 19.4841 33.1589 18.8004L36.3614 8.16843C41.5626 9.82289 45.3402 14.6751 45.3402 20.3918ZM19.5519 20.3918C19.5519 13.3158 25.3363 7.55825 32.446 7.55825C32.9991 7.55825 33.5403 7.60487 34.0759 7.67255L30.9433 18.0713C30.9014 18.07 30.8617 18.0584 30.8185 18.0584C28.5597 18.0584 26.7222 19.8901 26.7222 22.1419C26.7222 24.3935 28.5597 26.2253 30.8185 26.2253C32.3375 26.2253 33.65 25.3865 34.3582 24.159L42.8073 27.9975C40.4564 31.1615 36.6938 33.2254 32.4459 33.2254C25.3363 33.2254 19.5519 27.4678 19.5519 20.3918ZM32.5814 22.1419C32.5814 23.1067 31.7903 23.8919 30.8185 23.8919C29.8467 23.8919 29.0556 23.1067 29.0556 22.1419C29.0556 21.177 29.8467 20.3918 30.8185 20.3918C31.7903 20.3918 32.5814 21.177 32.5814 22.1419ZM5.39183 55.0074C4.87503 55.5195 4.03843 55.5184 3.52286 55.0086C3.2743 54.76 3.13785 54.4323 3.13785 54.0834C3.13785 53.7357 3.2743 53.4079 3.52286 53.1618L5.6274 51.0652L7.48941 52.9191L5.39183 55.0074ZM12.4222 63.1742C11.9054 63.6864 11.0677 63.6876 10.552 63.1755C10.3034 62.9269 10.1669 62.5992 10.1669 62.2503C10.1669 61.9026 10.3034 61.5747 10.552 61.3287L12.6579 59.2309L13.5388 60.1072L14.5211 61.0849L12.4222 63.1742ZM20.0383 55.5861C20.0371 55.5872 20.036 55.5872 20.0348 55.5884L16.1742 59.4385L15.2933 58.5622L14.311 57.5845L18.168 53.745C18.168 53.745 18.168 53.745 18.168 53.7439C18.1692 53.7427 18.1703 53.7427 18.1715 53.7416C18.259 53.6541 18.3139 53.5491 18.3676 53.4453C18.3828 53.415 18.4119 53.3893 18.4248 53.3578C18.461 53.268 18.4667 53.1712 18.4808 53.0766C18.4878 53.0229 18.5112 52.9728 18.5112 52.9179C18.5112 52.8396 18.4831 52.7639 18.4669 52.6868C18.4529 52.6168 18.4529 52.5456 18.426 52.478C18.3817 52.3684 18.3058 52.2716 18.2265 52.177C18.2044 52.1513 18.1962 52.1186 18.1717 52.0941C18.1717 52.0941 18.1717 52.0941 18.1705 52.0941C18.1692 52.093 18.1692 52.0906 18.1681 52.0895L14.6529 48.5894C14.6156 48.5521 14.5677 48.5369 14.5257 48.5055C14.464 48.4576 14.4045 48.4133 14.3356 48.3794C14.2691 48.3467 14.2014 48.3269 14.1314 48.3082C14.0568 48.2871 13.9845 48.2709 13.9063 48.265C13.835 48.2603 13.7686 48.2673 13.6975 48.2755C13.6193 48.2848 13.5459 48.2953 13.47 48.3198C13.3964 48.3432 13.3312 48.3793 13.2635 48.4178C13.2203 48.4423 13.1714 48.4505 13.1305 48.4809L9.25133 51.3766L7.28077 49.4142L12.5285 44.1945L22.0674 53.5759L20.0383 55.5861ZM34.9544 40.2371C34.9207 40.2325 34.8891 40.2453 34.8553 40.243C34.7701 40.2384 34.6885 40.2442 34.6034 40.2582C34.5369 40.2698 34.4739 40.2827 34.4108 40.3048C34.3362 40.3305 34.2685 40.3655 34.1996 40.4075C34.1343 40.4471 34.0748 40.4891 34.0176 40.5416C33.9896 40.5661 33.9558 40.5778 33.9301 40.6057L23.6527 51.862L14.185 42.5506L20.3825 36.3858C20.8387 35.9308 20.841 35.1923 20.386 34.7349C20.1562 34.5051 19.854 34.3919 19.5519 34.3931V34.392L14.6984 34.4212L14.7591 30.9048L21.5492 30.9632C24.3166 33.7936 28.176 35.5588 32.446 35.5588C33.4027 35.5588 34.3361 35.4597 35.2448 35.2904C35.3323 35.3604 35.4186 35.4317 35.5284 35.476L40.7995 37.576L41.1331 39.235L41.5228 41.1716L34.9544 40.2371ZM43.7944 40.6268L43.1096 37.2189L46.2736 34.8563L47.102 35.9553L48.3445 37.605L43.7944 40.6268ZM52.0055 34.434L50.1726 36.1514L48.1356 33.447L49.9544 32.0529C50.2938 31.7916 50.7221 31.6854 51.1421 31.7402C51.5644 31.7997 51.9378 32.0202 52.1921 32.362C52.6658 33.0002 52.5853 33.8904 52.0055 34.434Z" fill="#212121"/>
<path d="M29.7547 40.5651L25.0669 35.8984C24.6131 35.4447 23.8757 35.4447 23.4207 35.8984L18.7341 40.5651C18.5148 40.7857 18.3911 41.0819 18.3911 41.3923C18.3911 41.7026 18.5136 42.0002 18.7341 42.2195L23.4207 46.8861C23.6482 47.1124 23.9469 47.2256 24.2444 47.2256C24.5419 47.2256 24.8405 47.1124 25.0669 46.8861L29.7547 42.2195C29.974 42.0002 30.0988 41.7026 30.0988 41.3923C30.0988 41.0819 29.9751 40.7844 29.7547 40.5651ZM24.2444 44.4129L21.211 41.3923L24.2444 38.3717L27.2789 41.3923L24.2444 44.4129Z" fill="#212121"/>
<path d="M37.547 11.0923L36.9834 13.358C37.1386 13.3966 40.7845 14.3462 40.7845 18.0586H43.1179C43.1178 13.6461 39.4743 11.5718 37.547 11.0923Z" fill="#212121"/>
<path d="M43.1176 20.3918H40.7842V22.7253H43.1176V20.3918Z" fill="#212121"/>
</svg>

<svg width="70" height="70" fill="none" xmlns="http://www.w3.org/2000/svg"><path d="M69.943 9.896a1.168 1.168 0 00-.941-.793l-4.179-.608-1.87-3.787c-.392-.798-1.7-.798-2.092 0l-1.87 3.787-4.18.608a1.167 1.167 0 00-.648 1.99l3.026 2.948-.714 4.162c-.074.438.105.88.464 1.142a1.16 1.16 0 001.23.088l3.737-1.966 3.738 1.966a1.168 1.168 0 001.693-1.23l-.713-4.162 3.025-2.949a1.17 1.17 0 00.294-1.196zM64.556 12.8c-.274.267-.4.655-.335 1.033l.418 2.437-2.189-1.15a1.165 1.165 0 00-1.087 0l-2.19 1.15.419-2.437a1.168 1.168 0 00-.335-1.033l-1.773-1.726 2.448-.356c.38-.055.708-.294.879-.639l1.094-2.216L63 10.078c.17.345.499.584.879.639l2.448.355-1.77 1.727zM57.167 44.892h-2.334v2.334h2.334v-2.334zM57.167 49.56h-2.334v2.332h2.334V49.56zM59.5 47.226h-2.333v2.333H59.5v-2.333z" fill="#2196F3"/><path d="M54.834 47.226H52.5v2.333h2.334v-2.333zM49 57.726h-2.333v2.333H49v-2.333zM49 62.393h-2.333v2.333H49v-2.333zM51.333 60.06H49v2.333h2.333v-2.334zM46.667 60.06h-2.334v2.333h2.334v-2.334zM35 53.06h-2.334v2.333H35v-2.334zM35 57.726h-2.334v2.333H35v-2.333zM37.333 55.393H35v2.333h2.333v-2.333zM32.666 55.393h-2.333v2.333h2.333v-2.333zM12.833 13.392h-2.334v2.333h2.334v-2.333zM12.833 18.059h-2.334v2.333h2.334v-2.333zM15.166 15.725h-2.333v2.334h2.333v-2.334zM10.5 15.725H8.165v2.334h2.333v-2.334z" fill="#2196F3"/><path d="M54.063 30.974a3.88 3.88 0 00-2.599-1.541 3.886 3.886 0 00-2.93.77L45.794 32.3l-.001.002-4.151 3.1-2.97-1.184c5.296-2.376 8.998-7.674 8.998-13.825 0-8.363-6.83-15.167-15.227-15.167s-15.228 6.804-15.228 15.167c0 3.031.907 5.85 2.45 8.222l-6.046-.053h-.01c-.019 0-.034.01-.051.01a1.14 1.14 0 00-.34.068c-.028.011-.057.017-.084.03-.014.005-.028.006-.042.014l-7.072 3.491-.003.001-4.141 1.992a.898.898 0 00-.138.077A3.895 3.895 0 00.43 39.267a3.884 3.884 0 002.31 1.945 3.891 3.891 0 003.016-.281l3.036-1.614 4.952-2.558 2.968-.017L4.808 48.588c0 .002-.002.002-.003.003l-2.929 2.916a3.607 3.607 0 00-1.072 2.576c0 .973.38 1.89 1.072 2.579a3.647 3.647 0 002.58 1.062c.936 0 1.869-.355 2.582-1.062l2.875-2.863 3.808-2.843 1.97 1.962-3.854 3.837-.003.002-2.928 2.917a3.607 3.607 0 00-1.073 2.576c0 .973.38 1.889 1.073 2.579a3.65 3.65 0 002.58 1.061c.935 0 1.87-.354 2.582-1.061l2.93-2.917 4.686-4.667.002-.003 2.21-2.188-.01-.008c.015-.014.035-.019.049-.034l11.3-12.377 7.593 1.08c.055.008.11.012.164.012.142 0 .278-.034.41-.084.039-.014.072-.033.109-.051.042-.021.086-.033.126-.06l7.029-4.667c.026-.017.04-.045.064-.064.028-.022.063-.031.089-.056l2.78-2.605a3.892 3.892 0 00.465-5.166zM4.66 38.872a1.56 1.56 0 01-1.221.113 1.564 1.564 0 01-.465-2.755l2.874-1.383.692 2.022.29.85-2.17 1.153zm7.65-3.998l-3.387 1.75-.558-1.633-.402-1.174 4.434-2.189-.087 3.246zm33.03-14.482c0 2.009-.48 3.904-1.31 5.599l-9.147-4.155A4.07 4.07 0 0033.16 18.8L36.36 8.168c5.202 1.655 8.98 6.507 8.98 12.224zm-25.788 0c0-7.076 5.784-12.834 12.894-12.834.553 0 1.094.047 1.63.115L30.943 18.07c-.042-.001-.081-.013-.125-.013a4.094 4.094 0 00-4.096 4.084 4.094 4.094 0 004.096 4.083c1.52 0 2.832-.838 3.54-2.066l8.45 3.838c-2.352 3.165-6.114 5.228-10.362 5.228-7.11 0-12.894-5.757-12.894-12.833zm13.03 1.75c0 .965-.792 1.75-1.764 1.75a1.759 1.759 0 01-1.762-1.75c0-.965.79-1.75 1.762-1.75s1.763.785 1.763 1.75zM5.391 55.007a1.331 1.331 0 01-1.87.002 1.3 1.3 0 010-1.847l2.105-2.097L7.49 52.92l-2.097 2.088zm7.03 8.167a1.33 1.33 0 01-1.87.002 1.3 1.3 0 010-1.847l2.106-2.098.88.876.983.978-2.099 2.09zm7.616-7.588l-.003.002-3.86 3.85-.882-.876-.982-.977 3.857-3.84v-.001l.004-.002c.087-.088.142-.193.196-.297.015-.03.044-.056.057-.087.036-.09.042-.187.056-.281.007-.054.03-.104.03-.16 0-.077-.028-.153-.044-.23-.014-.07-.014-.141-.041-.209a1.167 1.167 0 00-.2-.301c-.022-.026-.03-.058-.054-.083h-.002c0-.001 0-.003-.002-.005l-3.515-3.5c-.037-.037-.085-.052-.127-.084a1.112 1.112 0 00-.19-.126 1.087 1.087 0 00-.205-.07 1.125 1.125 0 00-.225-.044 1.132 1.132 0 00-.209.01c-.078.01-.151.02-.227.045a1.08 1.08 0 00-.207.098c-.043.024-.092.032-.133.063l-3.879 2.896-1.97-1.963 5.247-5.22 9.54 9.382-2.03 2.01zm14.916-15.349c-.033-.005-.065.008-.099.006a1.146 1.146 0 00-.252.015 1.075 1.075 0 00-.404.15c-.065.04-.124.081-.181.134-.028.024-.062.036-.088.064L23.653 51.862l-9.468-9.311 6.197-6.165a1.168 1.168 0 00-.83-1.993v-.001l-4.854.03.061-3.517 6.79.058a15.2 15.2 0 0010.897 4.596c.957 0 1.89-.1 2.799-.269.087.07.174.142.283.186l5.272 2.1.333 1.659.39 1.937-6.569-.935zm8.84.39l-.684-3.408 3.164-2.363.828 1.1 1.242 1.649-4.55 3.022zm8.212-6.193l-1.833 1.717-2.037-2.704 1.818-1.394c.34-.261.768-.368 1.188-.313.422.06.796.28 1.05.622a1.562 1.562 0 01-.187 2.072z" fill="#212121"/><path d="M29.755 40.565l-4.688-4.667a1.166 1.166 0 00-1.646 0l-4.687 4.667a1.172 1.172 0 000 1.654l4.687 4.667a1.165 1.165 0 001.646 0l4.688-4.667a1.167 1.167 0 000-1.654zm-5.51 3.848l-3.034-3.02 3.033-3.021 3.035 3.02-3.035 3.02zM37.547 11.092l-.564 2.266c.156.039 3.802.988 3.802 4.7h2.333c0-4.412-3.644-6.486-5.571-6.966zM43.118 20.392h-2.334v2.333h2.334v-2.333z" fill="#212121"/></svg>
